X:5916
T:Gan Ainm
R:Reel
S:
H:
N:
D:
Z:Adrian Scahill
M:4/4
L:1/8
K:D
A3B ADFA|BFAF EDFE|DA,A,2 A,B,DF|GBAG FDDA|\
BA^GB ADFA|(3dcB AF EDFE|DB,B,2 A,dB|1 AFEG FDD2:|2 AFEG FDFA||\
dcdf aff2|afbf afef|dff2 Adfa|bfaf e3g|\
f3g afdf|(3gag fg eBB2|ABdf fedB|AFEG FDFA:||


